!!!OTL: 373. Das vergnuegte Bauernmuedchen.
!!!COM: Volksmelodie
!!!ARE: Europa, Mitteleuropa, Deutschland
!!!SCT: B0373
!!!TXL: @@DE
!!!YEM: Copyright 1995, estate of Helmut Schaffrath.
**kern	**text
*ICvox	*
*Ivox	*
*clefG2	*
*M2/4	*
*k[f#]	*
*G:	*
{8d	Mein
=1	=1
8g	gu-
8g	-ter
8g	Mi-
8g	-chel
=2	=2
8g	lie-
8b/	-bet
8g	mich,
8r	.
=3	=3
8g	lie-
8b/	-bet
8g}	mich,
{8b/	voll
=4	=4
8.a	deut-
16g	-ſcher
8f#	Red,
8e	lich-
=5	=5
(8dL	-keit,
8f#	.
8aJ)}	.
{8g	voll
=6	=6
8f#	deut-
8f#	-ſcher
8e	Red-
8a	-lich-
=7	=7
4d	-keit.
8r}	.
{8d	Wie
=8	=8
8cc	er
8cc	mich
8a	liebt,
8a	liebt
=9	=9
8b/	ſi-
8b/	-cher-
8g}	-lich
{8g	kein
=10	=10
8a	Bau-
8a	-er
8f#	weit
8f#	und
=11	=11
(8g/L	breit,
8b	.
8ddJ)}	.
{8dd	ſo_wie
=12	=12
8cc	er
8cc	mich
8a	liebt,
8a	liebt
=13	=13
8b/	ſi-
8b/	-cher-
8g}	-lich
{8g	kein
=14	=14
8a	Bau-
8a	-er
8f#	weit
8f#	und
=15	=15
4g	breit.
8r}	.
==	==
!!!AGN: Liebes - Lied, Liebes - Lust
!!!GTL: Liebeslieder - Liebeslust
!!!ONB: ESAC (Essen Associative Code) Database: BOEHME
!!!AMT: simple duple
!!!AIN: vox
!!!EED: Helmut Schaffrath
!!!EEV: 1.0
!!Volksmel. des 18. und 19. Jahrh.
!!@@COMMENT:"Gedicht von Traugott Benjamin Berger 1777. Ʒuerſt in deſſen "Liederchen und Gedichten".
!!Leipʒig 1777. S. 7-8. Vergl. Erk JJ. 4/5, Nr. 50. Verlängerter und abweichender Text bei
!!Jrmer, Volkslieder, 1. Heft Nr. 13 und in Härtel's Liederlexikon Nr. 510."
!!@@END:
!!!Text: T. B. Berger
!!!URL-scan: https://archive.org/details/BoehmeVtLieder1895/page/n309/mode/2up
!!!ENC: Anna Maria Matuszewska
!!!EEV: 2024/05/07
*-	*-
